X:796
M:C|
L:1/8
K:E Minor
gggb agfa|gef^d e/e/e g2||
dB B/B/B dBBg|eBBA GEEg|dB B/B/B dBBa|gef^d e/e/e g2|
dB B/B/B dBBg|eBBA GEEF|GABc dBBa|gef^d e/e/e g2||

